!!!id: bhatk3196s
!!!vol: 3
!!!page: 196
!!!sthayee: Apno kab hun 
!!!raag: bihag
!!!taal: teentaal
!!!tempo: madhyalaya
**kern
!!data: // =  =  =  =/  =  =  =  =/  =  =  =  =/  =  =  S  S/
==1
4ryy
4ryy
4ryy
4ryy
=
4ryy
4ryy
4ryy
4ryy
=
4ryy
4ryy
4ryy
4ryy
=
4ryy
4ryy
4c
4c
!!data: // %M  -  G  M/  P  -  N  N/  >PS'  %S'  -  N/  >D[N  - P]  -/
==2
2fS
4e
4f
=
2g
4b
4b
=
gq
4cc
2ccS
4b
=
aq
2bH
2gh
!!data: // >mp  -  >PG  M/  P  -  >PG  M/  [G  -  S]  S/  -  R  S  S/
==3
f#q
2g
gq
4e
4f
=
2g
gq
4e
4f
=
2eH
4ch
[4c
=
4c]
4d
4c
4c
!!>SN,  N,  P,  >SN,/  S  S  >PG  G/  GM  PD  MP  M/  G  -  S  S/
==
*-
